X:25
T:Just Because 
T:Version 1
R:square
M:2/4
L:1/8
Z:SG
K:G
gg gg| "G"g2ed| g (g3| g ) def| gg gg| g2 fe | "D"f4-|f4| 
"D"ff ff| f2 ed| f f3-|f3 f|"Am"  e2 ee| "D"f2e2| "G"d4-|d def|
"G"gg gg| "G"g2ed| g (g3| g ) def|g2 gg|a2 gf|"C"e4-|e3 e|
"C"g2 g2| "C#"a2 ga| "G"b2 gf| "E7"e3d| "A7"e4 |"D7"f2b2| "G"g4-|g2z2|]
